X: 7772
T: Come Back Paddy Reilly
R: waltz
M: 3/4
K: Gmajor
|:d2|d3ed2|B2A2G2|E2G2E2|D4D2|G4GG|A2G2A2|B6-|B4d2|
d2e2d2|B2A2G2|E2G2E2|D4D2|B3BB2|A2G2A2|G6-|G4:|
G2|e3ee2|c2d2e2|e2d3^c|d4B2|A2A2A2|e2d2^c2|d6-|d4d2|
d3ed2|B2A2G2|E2G2E2|D4D2|B4BB|A2G2A2|G6-|G4||

